!!!!SEGMENT: pl-sa--481-a-viii-121--011_pleyel-ignace-allegro.krn
!!!id: 18xx:382
!!!COM: Pleyel, Ignace
!!!OTL: Allegro
!!!PDT:
!!!SMS-siglum: PL-SA
!!!SMS-shelfmark: 481/A VIII 121
!!!NIFC-rismID: 1001070479
!!!URL-scan: http://bc.bdsandomierz.pl/dlibra/publication/1212/edition/1171/content
!!!ONB-nifc: Str. 8, s. 1-3
!!!SMS-variant:
!!!SMS-altvar:
**kern	**kern	**dynam
*part2	*part1	*part1
*staff2	*staff1	*
*clefF4	*clefG2	*
*k[b-e-]	*k[b-e-]	*
*M2/4	*M2/4	*
*>[A,A,B,B,C]	*[A,A,B,B,C]	*
*>A	*>A	*
!	!LO:TX:a:i:t=Allegro	!LO:DY:t=pia
4r	8bb-'\L	p
.	8bb-'\J	.
=1	=1	=1
*2\right	*	*
*tremolo	*	*
8e- 8c 8F\L	(16bb-\LL	.
.	16aa\	.
8e- 8c 8F\	16gg\	.
.	16ff\JJ)	.
8e- 8c 8F\	8gg'\L	.
8e- 8c 8F\J	8aa'\J	.
*Xtremolo	*	*
=2	=2	=2
4f 4B-\	(8bb-\L	.
.	8ff\)	.
8r	8ff'\	.
!LO:N:vis=4	!	!
8d\	8ff'\J	.
=3	=3	=3
8e-\L	8ggTT\L	.
8d\	8ff\	.
8c\	8ee-TT\	.
8B-\J	8dd\J	.
=4	=4	=4
4A 4F\	4cc\	.
4r	8bb-\L	.
.	8bb-\J	.
=5	=5	=5
*2\right	*	*
2e- 2c 2F\	(16bb-\LL	.
.	16aa\	.
.	16gg\	.
.	16ff\JJ)	.
.	8gg\L	.
.	8aa\J	.
=6	=6	=6
4d 4B-\	(8bb-\L	.
.	8ff\)	.
8r	8ff'\	.
8B- 8D\	8ff'\J	.
=7	=7	=7
.	8qgg/	.
[4B- 4D\	8gg\L	.
.	16ff\L	.
.	16ee-\JJ	.
8B-]L 8F\	8dd\L	.
8A\J	8cc\J	.
=	=	=
4B- 4BB-\	4b-sS\	.
=8:|!|:	=8:|!|:	=8:|!|:
*>B	*>B	*
8A\L	8cc\L	.
8F\J	8cc\J	.
=9	=9	=9
.	8qee-/	.
8B-\L	8dd\L	.
8F\J	16cc\L	.
.	16dd\JJ	.
8c\L	8ee-\L	.
8B-\J	8dd\J	.
=10	=10	=10
8A\L	4cc\	.
8F\J	.	.
8B-\L	8dd\L	.
8F\J	8dd\J	.
=11	=11	=11
.	8qff/	.
8c\L	8ee-\L	.
8F\J	16ee-\L	.
.	16ee-\JJ	.
8d\L	8ff\L	.
8c\J	8ee-\J	.
=12	=12	=12
8B-\L	4dd\	.
8F\J	.	.
8d\L	8bb-\L	.
8F\J	8bb-\J	.
=13!|:	=13!|:	=13!|:
.	8qbb-/	.
8e-\L	8aa\L	.
8F\J	16gg\L	.
.	16aa\JJ	.
8d\L	8bb-\L	.
8F\J	8bb-\J	.
!LO:LB:g=original	!LO:LB:g=original	!
=14:|!	=14:|!	=14:|!
8c\L	8ee-\L	.
8F\	8ee-\	.
8B-\	8dd\	.
8F\J	8dd\J	.
=15	=15	=15
4A\	16r	.
.	16cc\LL	.
.	16ff\	.
.	16aa\JJ	.
4r	16ccc\LL	.
.	16aa\	.
.	16ccc\	.
.	16aa\JJ	.
=16	=16	=16
8r	16ccc\LL	.
.	16bb-\	.
8B-L 8G 8C\	16aa\	.
.	16gg\JJ	.
8B- 8G 8C\	16ff\LL	.
.	16een\	.
8B-J 8G 8C\	16gg\	.
.	16ee\JJ	.
=17	=17	=17
4A 4F\	16ff\LL	.
.	16cc\	.
.	16ff\	.
.	16aa\JJ	.
4r	16ccc\LL	.
.	16aa\	.
.	16ccc\	.
.	16aa\JJ	.
=18	=18	=18
8r	16ccc\LL	.
.	16bb-\	.
8B-L 8G 8C\	16aa\	.
.	16gg\JJ	.
8B- 8G 8C\	16ff\LL	.
.	16een\	.
8B-J 8G 8C\	16gg\	.
.	16ee\JJ	.
=19	=19	=19
.	8qqgg/	.
*	*2\right	*
4A 4F\	2ffM\	.
4r	.	.
=20	=20	=20
2r	2ggM\	.
=21	=21	=21
2r	2aam\	.
=22	=22	=22
2r	4r	.
.	8bb-\L	.
.	8bb-\J	.
=23	=23	=23
2e- 2c 2F\	16bb-\LL	.
.	16aa\	.
.	16gg\	.
.	16ff\JJ	.
.	8gg\L	.
.	8aa\J	.
=24	=24	=24
4d 4B-\	(8bb-\L	.
.	8ff\)	.
8r	8ff'\	.
!LO:N:vis=4	!	!
8d\	8ff'\J	.
=25	=25	=25
8e-\L	8ggM\L	.
8d\	8ff\	.
8c\	8ee-M\	.
8B-\J	8dd\J	.
=26	=26	=26
!	!	!LO:DY:t=for
4A 4F\	4cc\	f
4r	8bb-\L	.
.	8bb-\J	.
!LO:LB:g=original	!LO:LB:g=original	!
=27	=27	=27
2e- 2c 2F\	(16bb-\LL	.
.	16aa\	.
.	16gg\	.
.	16ff\JJ)	.
.	8gg'\L	.
.	8aa'\J	.
=28	=28	=28
4d 4B-\	(8bb-\L	.
.	8ff\)	.
8r	8ff'\	.
8B- 8D\	8ff'\J	.
=29	=29	=29
.	8qaa/	.
[4B- 4E-\	8gg\L	.
.	16ff\L	.
.	16ee-\JJ	.
8B-]L 8F\	8dd\L	.
8A\J	8cc\J	.
=	=	=
4B- 4BB-\	4b-sS\	.
=30:|!	=30:|!	=30:|!
*>C	*>C	*
4F 4FF/	4a 4f 4c/	.
=31	=31	=31
*	*^	*
4B- 4BB-/	4b- 4f 4d/	4ryy	.
4F 4FF/	4aa 4ff/	4ee- 4cc\	.
*	*v	*v	*
=32	=32	=32
4BB- 4BBB-/	4bb- 4ff 4dd\	.
4r	4r	.
==	==	==
*-	*-	*-
!!!system-decoration: s1,s2
!!!ENC: Berenika Jozajtis
!!!END: 2020-06-14
!!!ENC: Marta Lawrence
!!!END: 2020-11-20
